**kern	**dynam	**kern	**dynam	**kern	**dynam	**kern	**dynam	**mxhm
*part4	*part4	*part3	*part3	*part2	*part2	*part1	*part1	*part1
*staff4	*	*staff3	*	*staff2	*	*staff1	*	*
*I"Cello	*	*I"Viola	*	*I"2nd Violin	*	*I"1st Violin	*	*
*clefF4	*	*clefC3	*	*clefG2	*	*clefG2	*	*
*k[b-e-a-d-g-]	*	*k[b-e-a-d-g-]	*	*k[b-e-a-d-g-]	*	*k[b-e-a-d-g-]	*	*
*D-:	*	*D-:	*	*D-:	*	*D-:	*	*
*M6/8	*	*M6/8	*	*M6/8	*	*M6/8	*	*
=1	=1	=1	=1	=1	=1	=1	=1	=1
!	!	!LO:TX:b:Bi:t=p	!	!	!	!LO:TX:a:B:t=Lento assai, cantante e tranquillo	!	!
2.r	.	[2.F	.	4r	.	2.r	.	.Db.I6
.	.	.	.	8r	.	.	.	.
!	!	!	!	!LO:TX:b:Bi:t=p	!	!	!	!
.	.	.	.	[4.A-	.	.	.	.
=2	=2	=2	=2	=2	=2	=2	=2	=2
!	!	!	!	!	!	!LO:TX:b:Bi:t=p	!	!
4r	.	4.F_	.	4.A-_	.	[4.d-	.	.
8r	.	.	.	.	.	.	.	.
!LO:TX:b:i:t=cresc.	!	!	!	!	!	!	!	!
!LO:TX:b:Bi:t=p	!	!LO:TX:b:i:t=cresc.	!	!LO:TX:b:i:t=cresc.	!	!LO:TX:b:i:t=cresc.	!	!
4.DD- 4.D-	.	4.F]	.	4.A-]	.	4.d-] 4.f	.	I
=3	=3	=3	=3	=3	=3	=3	=3	=3
*^	*	*	*	*	*	*	*	*
!	!	!	!	!	!	!	!LO:TX:b:i:t=sotto voce	!	!
(4.DD-	2.AA-	.	(4.F	.	[2.A-	.	(8d-L	.	.
.	.	.	.	.	.	.	8c	.	.
.	.	.	.	.	.	.	8B-J	.	.
4.EE-)	.	.	4.G-	.	.	.	8A-L	.	V43
.	.	.	.	.	.	.	8B-	.	.
.	.	.	.	.	.	.	8cJ)	.	.
=4	=4	=4	=4	=4	=4	=4	=4	=4	=4
(4.DD-	2.AA-	.	4.F	.	2.A-]	.	(8d-L	.	I
.	.	.	.	.	.	.	8e-	.	.
.	.	.	.	.	.	.	8fJ)	.	.
4.CC)	.	.	4.G-)	.	.	.	4.e-	.	V65
=5	=5	=5	=5	=5	=5	=5	=5	=5	=5
(4.DD-	2.AA-	.	(4.F	.	[2.A-	.	(8d-L	.	I
.	.	.	.	.	.	.	8c	.	.
.	.	.	.	.	.	.	8B-J	.	.
4.EE-)	.	.	4.G-)	.	.	.	8A-L	.	V43
.	.	.	.	.	.	.	8B-	.	.
.	.	.	.	.	.	.	8cJ)	.	.
*v	*v	*	*	*	*	*	*	*	*
=6	=6	=6	=6	=6	=6	=6	=6	=6
4.DD- 4.AA-	.	(4F	.	4.A-]	.	(8d-L	.	I
.	.	.	.	.	.	8e-	.	.
.	.	8D-	.	.	.	8fJ)	.	.
(4AA-	.	4C	.	(8A-L	.	(8f	.	V(64)
.	.	.	.	8c	.	4e-)	.	ii6
8GG-)	.	[8E-)	.	8B-J)	.	.	.	.
=7	=7	=7	=7	=7	=7	=7	=7	=7
4.FF	.	4E-]	.	4.An	.	4f	.	V7/vi
.	.	8C	.	.	.	8f	.	.
!LO:TX:a:Bi:t=p	!	!	!	!	!	!	!	!
!LO:TX:a:Bi:t=p	!	!	!	!LO:TX:b:Bi:t=p	!	!LO:TX:a:Bi:t=p	!	!
4.BB-	.	4.D-	.	4.B-	.	8fL	.	vi
.	.	.	.	.	.	8d-	.	.
.	.	.	.	.	.	8B-J	.	.
=8	=8	=8	=8	=8	=8	=8	=8	=8
4.DDn	<	(4Dn	<	(4.f	<	4b-	<	V6/ii
.	.	8F	.	.	.	8b-	.	.
!LO:TX:b:Bi:t=p	!	!LO:TX:a:Bi:t=p	!	!LO:TX:b:Bi:t=p	!	!LO:TX:a:Bi:t=p	!	!
4.EE-	[	4.G-)	[	4.B-)	[	(8b-L	[	ii
.	.	.	.	.	.	8g-	.	.
.	.	.	.	.	.	8e-J)	.	.
=9	=9	=9	=9	=9	=9	=9	=9	=9
4.CC	<	(4G-	<	(4e-	<	4a-	<	V65
.	.	8E-	.	[8A-) 8e-	.	8a-	.	.
4DD-	.	4.F)	[[	4.A-]	[[	(8a-L	.	I
.	.	.	.	.	.	8f	.	.
8FF	[[	.	.	.	.	8d-J)	[[	I6
=10	=10	=10	=10	=10	=10	=10	=10	=10
!LO:TX:b:Bi:t=p	!	!LO:TX:b:Bi:t=p	!	!LO:TX:b:Bi:t=p	!	!LO:TX:b:Bi:t=p	!	!
4.AA-	.	(4F	.	(4d-	.	(8A-L	.	V(64)
.	.	.	.	.	.	8f	.	.
.	.	8G-	.	8c)	.	8e-J)	.	V7
(8D-L	<	4.F)	<[	[4.A-	<[	4.d-	<[	I\\
8FF	.	.	.	.	.	.	.	.
8GG-J	[[	.	.	.	.	.	.	.
=11	=11	=11	=11	=11	=11	=11	=11	=11
8AA-L	>	(4F	>	4.A-]	>	(4d-	>	V(64)
8F	.	.	.	.	.	.	.	.
8E-J)	]	8G-	]	.	.	8c)	]	V7
(4D-	<	4F	<	(8A-	] <	(8d-L	<	I\\
.	.	.	.	4d-)	[[	8f	.	.
8BB-)	[[	8D-)	[[	.	.	8g-J	[[	IV6
=12	=12	=12	=12	=12	=12	=12	=12	=12
4.AA-	>	(4D-	>	(8fL	>	8a-L	>	V(64)
.	.	.	.	8a-	.	8ff	.	.
.	.	8C)	.	8g-J)	.	8ee-J)	.	V7
8D-L	]	(8FL	]	(8fL	]	(8dd-L	]	I\\
8D-	.	8G-	.	8d-)	.	8b-	.	I(64)
8D-J	.	8E-J)	.	8d-J	.	8g-J)	.	I(94)
=13	=13	=13	=13	=13	=13	=13	=13	=13
!LO:TX:b:i:t=dim.	!	!	!	!	!	!	!	!
!LO:TX:a:i:t=dim.	!	!LO:TX:a:i:t=dim.	!	!LO:TX:a:i:t=dim.	!	!	!	!
(8D-	.	8D-	.	(4d-	.	(8fL	.	I
*clefC4	*	*	*	*	*	*	*	*
4d-)	.	4f	.	.	.	8a-	.	.
.	.	.	.	8a-)	.	8dd-J)	.	.
(4.e-	.	4.g-	.	4.a-	.	(4dd-	.	V43(4)
.	.	.	.	.	.	8cc)	.	V43
=14	=14	=14	=14	=14	=14	=14	=14	=14
4.d-	.	(4.f	.	4.a-	.	(8dd-L	.	I
.	.	.	.	.	.	8ee-	.	.
.	.	.	.	.	.	8ffJ)	.	.
[4.c)	.	8e-L	.	4.a-	.	(4ff	.	V65(6)
.	.	8f	.	.	.	.	.	.
.	.	8g-J)	.	.	.	8ee-)	.	V65
=15	=15	=15	=15	=15	=15	=15	=15	=15
!LO:TX:b:i:t=cresc.	!	!LO:TX:a:i:t=cresc.	!	!LO:TX:a:i:t=cresc.	!	!LO:TX:a:i:t=cresc.	!	!
8cL]	.	(4g-	.	(4b--	.	(4ee-	.	viio7
(8c	.	.	.	.	.	.	.	.
8d-J)	.	8f)	.	8a-)	.	8dd-)	.	I
(4d-	.	(4f	.	4.a-	.	(4dd-	.	.
8e-)	.	8g-)	.	.	.	8cc)	.	V43
=16	=16	=16	=16	=16	=16	=16	=16	=16
(4e-	.	(4g-	.	4.a-	.	(4cc	.	.
8d-)	.	8f)	.	.	.	8dd-)	.	I
(4Bn	.	(4f	.	4.a-	.	(4ddn	.	#viio7/vii
8c)	.	8e-)	.	.	.	8ee-)	.	V6
=17	=17	=17	=17	=17	=17	=17	=17	=17
!	!	!LO:TX:b:Bi:t=rfz	!	!	!	!	!	!
!LO:TX:b:Bi:t=rfz	!	!LO:TX:a:Bi:t=rfz	!	!	!	!LO:TX:b:Bi:t=rfz	!	!
(4B-X	.	(8d-L	.	(8gnL	.	(4een	.	#viio2/iii
.	.	8gn	.	8dd-	.	.	.	.
8An)	.	8anJ)	.	8ccJ)	.	8ff)	.	III6
8r	.	8r	.	(4cc	.	(4ff	.	III
(8FL	.	8aL	.	.	.	.	.	.
8B-J)	.	8fJ	.	8b-)	.	8ddn)	.	VI
=18	=18	=18	=18	=18	=18	=18	=18	=18
!	!	!LO:TX:b:Bi:t=rfz	!	!	!	!	!	!
!LO:TX:b:Bi:t=rfz	!	!LO:TX:a:Bi:t=p	!	!	!	!LO:TX:b:Bi:t=rfz	!	!
!LO:TX:b:Bi:t=p	!	!LO:TX:b:Bi:t=p	!	!LO:TX:b:Bi:t=rfz	!	!LO:TX:a:Bi:t=p	!	!
(4c-X	.	(4e-	.	(4ee-	.	(4aan	.	ii.It6
8B-)	.	8f)	.	8ddn)	.	8bb-)	.	V/ii
8r	.	8r	.	8r	.	(4bb-	.	.
(8dnL	.	(8fL	.	(8ffL	.	.	.	.
8e-J)	.	8g-XJ)	.	8b-J)	.	8gg-)	.	i
=19	=19	=19	=19	=19	=19	=19	=19	=19
!	!	!LO:TX:a:Bi:t=rfz	!	!	!	!	!	!
!	!	!LO:TX:b:Bi:t=rfz	!	!	!	!	!	!
!LO:TX:b:Bi:t=rfz	!	!LO:TX:b:Bi:t=p	!	!	!	!LO:TX:b:Bi:t=rfz	!	!
!LO:TX:a:Bi:t=p	!	!LO:TX:a:Bi:t=p	!	!	!	!LO:TX:a:Bi:t=p	!	!
(4d-X	.	(4f-X	.	(4b-	.	(4ggn	.	I.#viio43/V
8c)	.	8e-)	.	8a-)	.	8aa-)	.	V6
(4c	.	(4ee-	.	(4gg-	.	[4aa-	.	V65
8d-)	.	8dd-)	.	8ff)	.	8aa-_	.	I
=20	=20	=20	=20	=20	=20	=20	=20	=20
!LO:TX:a:Bi:t=p	!	!LO:TX:a:Bi:t=p	!	!LO:TX:a:Bi:t=p	!	!LO:TX:a:Bi:t=p	!	!
8r	<	8r	<	8r	<	4.aa-_	<	I64
(8a-L	.	(8dd-L	.	(8ffL	.	.	.	.
8g-J)	.	8ccJ)	.	8ee-J)	.	.	.	.
(8g-	[ >	(8cc	[ >	(8ee-	[ >	4aa-]	[ >	I6
4f)	]]	4a-)	]]	4dd-)	]]	.	.	.
.	.	.	.	.	.	8ddd-	]]	.
=21	=21	=21	=21	=21	=21	=21	=21	=21
8r	.	[4.A-	<	8r	.	8r	.	I64
(8a-L	<	.	.	(8d-L	<	(8ffL	<	.
8g-J)	.	.	.	8cJ)	.	8ee-J)	.	V2
(8g-	[ >	(4A-]	>	(8cL	[ >	(8ee-	[ >	.
4f)	]]	.	.	8A-)	.	4dd-)	]]	I
.	.	8d-)	]]	8a-J	]]	.	.	.
=22	=22	=22	=22	=22	=22	=22	=22	=22
8r	.	8r	] <	[4.A-	<	[4.a-	<	I6
(8FFL	.	(8D-L	.	.	.	.	.	.
8EE-J)	.	8G-J)	.	.	.	.	.	.
(8EE-	.	(8G-L	[ >	(4A-]	[ >	(4a-]	[ >	I(2)
4DD-)	.	8F	.	.	.	.	.	.
.	.	8F-XJ)	]]	8d-)	]]	8dd-)	]]	i
=23||	=23||	=23||	=23||	=23||	=23||	=23||	=23||	=23||
*k[f#c#g#d#]	*	*k[f#c#g#d#]	*	*k[f#c#g#d#]	*	*k[f#c#g#d#]	*	*
*E:	*	*E:	*	*E:	*	*E:	*	*
!	!	!LO:TX:a:Bi:t=dim.	!	!	!	!LO:TX:b:Bi:t=dim.	!	!
!LO:TX:a:Bi:t=dim.	!	!LO:TX:b:Bi:t=pp	!	!	!	!LO:TX:b:Bi:t=pp	!	!
!LO:TX:b:Bi:t=pp	!	!LO:TX:a:Bi:t=pp	!	!	!	!LO:TX:a:B:t=Piu lento	!	!
4CC#	.	4E	.	4G#	.	4c#	.	#vii.i
16r	.	16r	.	16r	.	16r	.	.
16CC#	.	16E	.	16G#	.	16c#	.	.
4DD#	.	4F#	.	4G#	.	4B#X	.	V43
16r	.	16r	.	16r	.	16r	.	.
16DD#	.	16F#	.	16G#	.	16B#	.	.
=24	=24	=24	=24	=24	=24	=24	=24	=24
!LO:TX:a:i:t=cresc.	!	!LO:TX:a:i:t=cresc.	!	!	!	!LO:TX:a:i:t=cresc.	!	!
4CC#	.	4E	.	4G#	.	4c#	.	i
16r	.	16r	.	16r	.	16r	.	.
16GG#	.	16E	.	16G#	.	16c#	.	V(64)
8GG#	.	8D#	.	8B#X	.	8d#	.	V
16r	.	16r	.	16r	.	16r	.	.
(16GG#'LL	.	(16D#'LL	.	(16B#'LL	.	(16a'LL	.	V(9)
16GG#'	.	16D#'	.	16B#'	.	16g#'	.	V
16GG#'JJ)	.	16G#'JJ)	.	16Bn'JJ)	.	16d#'JJ)	.	v
=25	=25	=25	=25	=25	=25	=25	=25	=25
!	!	!LO:TX:a:Bi:t=pp	!	!	!	!	!	!
!LO:TX:b:Bi:t=pp	!	!LO:TX:a:Bi:t=pp	!	!	!	!LO:TX:b:Bi:t=pp	!	!
4EE	.	4G#	.	4B	.	4e	.	#II.I
16r	.	16r	.	16r	.	16r	.	.
16E	.	16B	.	16G#	.	16e	.	.
4F#	.	4B	.	4A	.	4d#	.	V43
16r	.	16r	.	16r	.	16r	.	.
16F#	.	16B	.	16A	.	16d#	.	.
=26	=26	=26	=26	=26	=26	=26	=26	=26
4E	.	4B	.	4G#	.	4g#	.	I
16r	.	16r	.	16r	.	16r	.	.
16E	.	16G#	.	16e	.	16g#	.	.
8BB	.	8F#	.	8d#	.	8b	.	V
16r	.	16r	.	16r	.	16r	.	.
(16AA'LL	.	(16F#'LL	.	(16d#'LL	.	(16b'LL	.	V2
16GG#'	.	16E'	.	16e'	.	16b'	.	I6
16FF#'JJ)	.	16A'JJ)	.	16d#'JJ)	.	16b'JJ)	.	V43
=27	=27	=27	=27	=27	=27	=27	=27	=27
!LO:TX:b:i:t=cresc.	!	!LO:TX:a:i:t=cresc.	!	!	!	!	!	!
!LO:TX:a:i:t=cresc.	!	!LO:TX:a:Bi:t=pp	!	!	!	!	!	!
!LO:TX:b:Bi:t=pp	!	!LO:TX:a:Bi:t=pp	!	!LO:TX:a:i:t=cresc.	!	!LO:TX:a:Bi:t=pp	!	!
4EE#X	<	4G#	<	4dn	<	4b	<	#viio7/ii
16r	.	16r	.	16r	.	16r	.	.
16EE#	.	16g#	.	16b	.	16ddn	.	.
4EE#	[ >	4g#	[ >	4b	[ >	4cc#	[ >	V65/ii
16r	.	16r	.	16r	.	16r	.	.
16EE#	]]	16g#	]]	16b	]]	16cc#	]]	.
=28	=28	=28	=28	=28	=28	=28	=28	=28
4AA#X	<	4Gn 4gn	<	4e	<	4cc#	<	#viio7/V
16r	.	16r	.	16r	.	16r	.	.
16AA#	.	16c#	.	16ee	.	16ggn	.	.
4AA#	[ >	4c#	[ >	4ee	[ >	4gg	[ >	.
16r	.	16r	.	16r	.	16r	.	.
16AA#	]]	16c#	]]	16e	]]	16ff#	]]	V65/V
=29	=29	=29	=29	=29	=29	=29	=29	=29
!	!	!LO:TX:a:i:t=cresc.	!	!	!	!	!	!
!LO:TX:b:i:t=cresc.	!	!LO:TX:a:i:t=cresc.	!	!	!	!LO:TX:a:i:t=cresc.	!	!
4BB#X	.	4A	.	4d#X	.	4ff#	.	#vii.#viio7
16r	.	16r	.	16r	.	16r	.	.
!LO:TX:b:Bi:t=rfz	!	!LO:TX:b:Bi:t=rfz	!	!LO:TX:b:Bi:t=rfz	!	!LO:TX:b:Bi:t=rfz	!	!
16AAn	.	16b#X	.	16ff#	.	16ddd#X	.	#viio2
4AA	.	4b#	.	4ff#	.	4ddd#	.	.
16r	.	16r	.	16r	.	16r	.	.
16FF##X	.	16A#X	.	16e 16cc#	.	16eee	.	#viio7/V
=30	=30	=30	=30	=30	=30	=30	=30	=30
!LO:TX:a:Bi:t=p	!	!LO:TX:a:Bi:t=p	!	!LO:TX:a:Bi:t=p	!	!LO:TX:a:Bi:t=p	!	!
4GG#	.	4G#	.	4e 4cc#	.	4eee	.	V(64)
16r	.	16r	.	16r	.	16r	.	.
16D#	>	16G#	>	16f#	>	16bb#X	>	V43
8C#	.	8G#	.	8e	.	8ccc#	.	i
16r	]	16r	]	16r	]	16r	]	.
(16FF#'LL	.	(16An'LL	.	(16c#'LL	.	(16ccc#'LL	.	iv[iv6
16FF#'	.	16G#'	.	16e#X'	.	16bbn'	.	#viio64/iv
16FF#'JJ)	.	16A'JJ)	.	16f#'JJ)	.	16aa'JJ)	.	iv6]
=31	=31	=31	=31	=31	=31	=31	=31	=31
!LO:TX:b:Bi:t=p	!	!	!	!	!	!	!	!
!LO:TX:a:Bi:t=p	!	!	!	!LO:TX:a:Bi:t=p	!	!LO:TX:a:Bi:t=p	!	!
!LO:TX:b:i:t=cresc.	!	!LO:TX:b:i:t=cresc.	!	!LO:TX:b:i:t=cresc.	!	!LO:TX:b:i:t=cresc.	!	!
4GG#	.	4c#	.	4e	.	4gg#	.	V(64)
16r	.	16r	.	16r	.	16r	.	.
16D#	>	16F#	>	16B#X	>	16g#	>	V43
8C#	.	8E	.	8c# 8e	.	8g#	.	i
16r	]	16r	]	16r	]	16r	]	.
(16C#'LL	.	(16E#X'LL	.	(16c#'LL	.	(16c#'LL	.	I
16BB'	.	16E#'	.	16c#'	.	16e#X'	.	V2/iv
16AA'JJ)	.	16F#'JJ)	.	16c#'JJ)	.	16f#'JJ)	.	iv
=32	=32	=32	=32	=32	=32	=32	=32	=32
*k[b-e-a-d-g-]	*	*k[b-e-a-d-g-]	*	*k[b-e-a-d-g-]	*	*k[b-e-a-d-g-]	*	*
*D-:	*	*D-:	*	*D-:	*	*D-:	*	*
!	!	!	!	!	!	!LO:TX:a:Bi:t=p	!	!
!LO:TX:a:Bi:t=p	!	!LO:TX:a:Bi:t=p	!	!	!	!LO:TX:a:B:t=Tempo I.	!	!
4AA-	.	4En	.	4d-	.	4a-	.	i.V64
16r	.	16r	.	16r	.	16r	.	.
16AA-	.	16E-X	.	16c	.	16a-	.	V
8r	.	8r	.	8r	.	8r	.	.
8r	.	(8FL	.	(8d-L	.	[4a-	.	I.I
[8DD- [8D-	.	16B-L	.	16g-L	.	.	.	.
.	.	16G-JJ)	.	16e-JJ)	.	.	.	.
=33	=33	=33	=33	=33	=33	=33	=33	=33
!	!	!LO:TX:b:i:t=cresc.	!	!	!	!	!	!
!	!	!LO:TX:a:i:t=cresc.	!	!	!	!LO:TX:b:Bi:t=p	!	!
!LO:TX:b:Bi:t=p	!	!LO:TX:b:Bi:t=p	!	!LO:TX:b:Bi:t=p	!	!LO:TX:b:i:t=cresc.	!	!
(8DD-L] 8D-]	.	(8FL	.	(8d-	.	(8a-]	.	.
8C	.	8E-	.	4A-	.	4ff	.	V6(+6)
8BB-J	.	8D-J	.	.	.	.	.	.
8AA-L	.	8CL	.	[4A-)	.	8gg-L	.	V7
8BB-	.	8D-	.	.	.	8ff	.	vi7
8CJ)	.	8E-J	.	(16A-LL]	.	8ee-J)	.	V65
.	.	.	.	16g-JJ)	.	.	.	.
=34	=34	=34	=34	=34	=34	=34	=34	=34
(8D-L	.	8FL	.	(8fL	.	(8dd-L	.	I
8E-	.	8G-	.	8c	.	8cc	.	V43
8FJ)	.	8A-J)	.	8d-J)	.	8b-J	.	vi43
(8F	.	(8A-	.	(8d-L	.	8a-L	.	I6
4E-)	.	4G-)	.	8c	.	8b-	.	V43
.	.	.	.	[8A-J)	.	8ccJ)	.	.
=35	=35	=35	=35	=35	=35	=35	=35	=35
(8D-L	.	(8FL	.	8A-L]	.	(8dd-L	.	I
8C	.	8E-	.	(8.A-	.	8ee-	.	V6
8BB-J	.	8D-J	.	.	.	8ffJ)	.	vi6
.	.	.	.	16fJk)	.	.	.	.
8AA-L	.	8CL	.	4g-	.	(8ff	.	V7(6)
8BB-	.	8.A-	.	.	.	4ee-)	.	V65
8CJ)	.	.	.	[8a-	.	.	.	.
.	.	16G-Jk)	.	.	.	.	.	.
=36	=36	=36	=36	=36	=36	=36	=36	=36
(8D-L	.	(8FL	.	(8.a-L]	.	(8dd-L	.	I
8E-	.	8G-	.	.	.	8cc	.	V43
.	.	.	.	16cK	.	.	.	.
8FJ)	.	8A-J)	.	8d-J)	.	8b-J	.	vi43
(8FL	.	[4A-	.	(8d-	.	8a-L	.	I6
8.E-	.	.	.	[4c)	.	8b-	.	V43
.	.	(16A-LL]	.	.	.	8ccJ)	.	V6/iii
16EnJk)	.	16GnJJ)	.	.	.	.	.	.
=37	=37	=37	=37	=37	=37	=37	=37	=37
4F	.	(8A-L	.	(8cL]	.	(8ccL	.	iii
.	.	8.c	.	8.f	.	8.a-	.	.
8F	.	.	.	.	.	.	.	.
.	.	([16AnJk)	.	([16cJk)	.	16anJk)	.	V/vi
(8FL	.	16ALL]	.	16cLL]	.	4ff	.	vi6
.	.	[16B-	.	[16d-	.	.	.	.
8D-	.	16B-]	.	16d-]	.	.	.	.
.	.	16c)	.	16e-)	.	.	.	.
8BB-J)	.	(16c	.	(16e-	.	8ff	.	vi
.	.	16d-JJ)	.	16fJJ)	.	.	.	.
=38	=38	=38	=38	=38	=38	=38	=38	=38
4B-	.	(8d-	.	(8fL	.	(8ffL	.	.
.	.	[4dn	.	8.b-	.	8ddn	.	V/ii
8B-	.	.	.	.	.	8b-J)	.	.
.	.	.	.	([16fJk)	.	.	.	.
(8B-L	.	16dLL]	.	16fLL]	.	4bb-	.	ii6
.	.	[16e-	.	[16g-	.	.	.	.
8G-	.	16e-]	.	16g-]	.	.	.	.
.	.	16f)	.	16a-)	.	.	.	.
8E-J)	.	(16f	.	(16a-	.	8bb-	.	ii
.	.	16g-JJ)	.	16b-JJ)	.	.	.	.
=39	=39	=39	=39	=39	=39	=39	=39	=39
4A-	.	(16g-LL	.	(16b-LL	.	(8bb-L	.	ii6(+4)
.	.	[16G-JJ)	.	[16e-JJ)	.	.	.	.
.	.	8.G-L]	.	8.e-L]	.	8gg-	.	.
8A-	.	.	.	.	.	8ee-J)	.	.
.	.	([16G-Jk	.	([16cJk	.	.	.	.
(8A-L	.	16G-LL]	.	16cLL]	.	4aa-	.	I6
.	.	[16F	.	[16d-	.	.	.	.
8F	.	16F]	.	16d-]	.	.	.	.
.	.	16G-)	.	16e-)	.	.	.	.
8D-J)	.	(16G-	.	(16e-	.	8aa-	.	I
.	.	16A-JJ)	.	16fJJ)	.	.	.	.
=40	=40	=40	=40	=40	=40	=40	=40	=40
(8AA-L	.	(8d-L	.	(8.fL	.	(4aa-	.	V(64)
8F	.	8.A-	.	.	.	.	.	.
.	.	.	.	16dd-K	.	.	.	.
8E-J	.	.	.	8ccJ)	.	8ccc	.	V7
.	.	16G-Jk)	.	.	.	.	.	.
8D-L	.	(16FLL	.	(16dd-LL	.	4ddd-)	.	I6
.	.	[16fJJ)	.	[16a-JJ)	.	.	.	.
8FF	.	(16fLL]	.	(16a-LL]	.	.	.	.
.	.	16A-J)	.	16ffJ)	.	.	.	.
8GG-J)	.	8G-J	.	8ee-J	.	[8aa-	.	V2
=41	=41	=41	=41	=41	=41	=41	=41	=41
!LO:TX:a:i:t=ten.	!	!	!	!	!	!	!	!
[4.AA-	<	(16FLL	<	(16dd-LL	<	(8aa-L]	<	V(64)
.	.	[16D-JJ)	.	[16fJJ)	.	.	.	.
.	.	(16D-LL]	.	(16fLL]	.	8fff	.	.
.	.	16FJ)	.	16dd-J)	.	.	.	.
.	.	8G-J	.	8ccJ	.	8eee-J)	.	V7
(8AA-L]	[ >	[8FL	[ >	(16dd-LL	[ >	4ddd-	[ >	I6
.	.	.	.	[16d-JJ)	.	.	.	.
8FF	.	(16FL]	.	(16d-LL]	.	.	.	.
.	.	16d-JJ)	.	16fJ)	.	.	.	.
8GG-J	]]	([8c	]]	([8e-J	]]	[8aa-	]]	V2
=42	=42	=42	=42	=42	=42	=42	=42	=42
8AA-L	<	16cLL]	<	16e-LL]	<	(4aa-]	<	I6
.	.	[16F	.	[16d-	.	.	.	.
8F	.	16F]	.	16d-]	.	.	.	.
.	.	[16A-JJ	.	16a-J)	.	.	.	.
8E-J)	.	8A-_	.	[8g-J	.	8ccc	.	V43
8D-L	[ >	16A-KL])	[ >	(16g-KL]	[ >	8ddd-L	[ >	I[I64
.	.	(8A-	.	8f	.	.	.	.
8D-	.	.	.	.	.	8bb-	.	IV6
.	.	16B-Jk)	.	16g-Jk)	.	.	.	.
8D-J	]]	(16B-LL	.	(16g-LL	.	8gg-J)	]]	ii64
.	.	16cJJ)	]]	16e-JJ)	]]	.	.	.
=43	=43	=43	=43	=43	=43	=43	=43	=43
!	!	!	!	!	!	!LO:TX:a:i:t=semplice	!	!
(4.D-	.	16r	.	16d-	.	16ff	.	I]
.	.	[16F	.	16r	.	(16ffLL	.	.
.	.	4F]	.	(16A-LL	.	16ee-JJ)	.	.
.	.	.	.	16d-	.	32r	.	.
.	.	.	.	.	.	32b-	.	.
.	.	.	.	16en	.	8a-	.	.
.	.	.	.	16fJJ)	.	.	.	.
4.E-	.	16r	.	8r	.	16r	.	V43
.	.	[16G-	.	.	.	(16dd-LL	.	.
.	.	4G-]	.	(16A-LL	.	16ccJJ)	.	.
.	.	.	.	16c	.	32r	.	.
.	.	.	.	.	.	32bb-	.	.
.	.	.	.	16f	.	8aa-	.	.
.	.	.	.	16g-JJ)	.	.	.	.
=44	=44	=44	=44	=44	=44	=44	=44	=44
!	!	!	!	!	!	!LO:TX:b:i:t=ten.	!	!
4.D-	.	16r	.	8r	.	16r	.	I
.	.	[16F	.	.	.	(16eee-LL	.	.
.	.	4F]	.	(16A-LL	.	16ddd-JJ)	.	.
.	.	.	.	16d-	.	32r	.	.
.	.	.	.	.	.	32bb-	.	.
.	.	.	.	16en	.	8aa-	.	.
.	.	.	.	16fJJ)	.	.	.	.
4.C)	.	16r	.	8r	.	16r	.	V65
.	.	[16G-	.	.	.	(16ffLL	.	.
.	.	4G-]	.	(16A-LL	.	16ee-JJ)	.	.
.	.	.	.	16e-X	.	32r	.	.
.	.	.	.	.	.	32bb-	.	.
.	.	.	.	16f	.	8aa-	.	.
.	.	.	.	16g-JJ)	.	.	.	.
=45	=45	=45	=45	=45	=45	=45	=45	=45
(4.D-	.	16r	.	8r	.	16r	.	I
.	.	[16F	.	.	.	(16ee-LL	.	.
.	.	4F]	.	(16A-LL	.	16dd-JJ)	.	.
.	.	.	.	16d-	.	(32dd-LLL	.	.
.	.	.	.	.	.	32b-JJJ)	.	.
.	.	.	.	16f	.	8a-	.	.
.	.	.	.	16fJJ)	.	.	.	.
4.E-	.	16r	.	8r	.	16r	.	V43
.	.	[16G-	.	.	.	(16dd-LL	.	.
.	.	4G-]	.	(16A-LL	.	16ccJJ)	.	.
.	.	.	.	16c	.	(32ccLLL	.	.
.	.	.	.	.	.	32bb-JJJ)	.	.
.	.	.	.	16f	.	8aa-	.	.
.	.	.	.	16g-JJ)	.	.	.	.
=46	=46	=46	=46	=46	=46	=46	=46	=46
4.D-	.	16r	.	8r	.	16r	.	I
.	.	[16F	.	.	.	(16eee-LL	.	.
.	.	4F]	.	(16A-LL	.	16ddd-JJ)	.	.
.	.	.	.	16d-	.	(32ddd-LLL	.	.
.	.	.	.	.	.	32bb-JJJ)	.	.
.	.	.	.	16en	.	8aa-	.	.
.	.	.	.	16fJJ)	.	.	.	.
[4C	.	16r	.	8r	.	16r	.	V65
.	.	[16E-	.	.	.	(16ffLL	.	.
.	.	(8E-L_	.	(16A-LL	.	16ee-JJ)	.	.
.	.	.	.	16c	.	(32ee-LLL	.	.
.	.	.	.	.	.	32bb-JJJ)	.	.
16CLL]	.	16E-L]	.	16e-X	.	16aa-LL	.	.
16BB-JJ)	.	16D-JJ)	.	16g-JJ)	.	(32ee-L	.	vi7
.	.	.	.	.	.	32gg-JJJ)	.	.
=47	=47	=47	=47	=47	=47	=47	=47	=47
(16AAnLL	.	16r	.	8r	.	16ffLL	.	V65/vi
[16AnJJ)	.	[16c	.	.	.	(16ddd-	.	.
4A]	.	4c]	.	(16e-LL	.	16cccJJ)	.	.
.	.	.	.	16f	.	(32cccLLL	.	.
.	.	.	.	.	.	32gg-JJJ)	.	.
.	.	.	.	16an	.	8ff	.	.
.	.	.	.	16ccJJ)	.	.	.	.
(16AA-XLL	.	16r	.	8r	.	16r	.	V2/ii
[16A-XJJ)	.	[16B-	.	.	.	(16gg-LL	.	.
4A-]	.	4B-]	.	(16dnLL	.	16ffJJ)	.	.
.	.	.	.	16f	.	(32ffLLL	.	.
.	.	.	.	.	.	32ccc-XJJJ)	.	.
.	.	.	.	16a-X	.	16bb-	.	.
.	.	.	.	16b-JJ)	.	16r	.	.
=48	=48	=48	=48	=48	=48	=48	=48	=48
!	!	!LO:TX:b:i:t=poco	!	!	!	!	!	!
!	!	!LO:TX:a:i:t=poco	!	!	!	!	!	!
!LO:TX:b:i:t=poco	!	!LO:TX:a:i:t=cresc.	!	!	!	!LO:TX:b:i:t=poco	!	!
!LO:TX:b:i:t=cresc.	!	!LO:TX:a:i:t=cresc.	!	!	!	!LO:TX:b:i:t=cresc.	!	!
(16GGnLL	.	16r	.	8r	.	16r	.	V65/V
[16GnJJ)	.	[16B-	.	.	.	(16ccc-XLL	.	.
4G]	.	4B-]	.	(16d-XLL	.	16bb-JJ)	.	.
.	.	.	.	16e-	.	(32bb-LLL	.	.
.	.	.	.	.	.	32ff-XJJJ)	.	.
.	.	.	.	16gn	.	8ee-	.	.
.	.	.	.	16b-JJ)	.	.	.	.
(16GG-XLL	.	16r	.	8r	.	16r	.	V2
[16G-XJJ)	.	[16A-	.	.	.	(16ffnLL	.	.
4G-]	.	4A-]	.	(16cLL	.	16ee-JJ)	.	.
.	.	.	.	16e-	.	(32ee-LLL	.	.
.	.	.	.	.	.	32bb-JJJ)	.	.
.	.	.	.	16g-X	.	8aa-	.	.
.	.	.	.	16a-JJ)	.	.	.	.
=49	=49	=49	=49	=49	=49	=49	=49	=49
!	!	!LO:TX:a:i:t=a	!	!	!	!	!	!
!	!	!LO:TX:a:i:t=a	!	!	!	!LO:TX:a:i:t=a	!	!
(16GG-LL	.	16r	.	8r	.	16r	.	.
[16G-JJ)	.	[16A-	.	.	.	(16bb-LL	.	.
4G-]	.	4A-]	.	(16cLL	.	16aa-JJ)	.	.
.	.	.	.	16e-	.	(32aa-LLL	.	.
.	.	.	.	.	.	32ffJJJ)	.	.
.	.	.	.	16g-	.	8ee-	.	.
.	.	.	.	16a-JJ)	.	.	.	.
(16FFLL	.	16r	.	8r	.	16r	.	I6
[16FJJ)	.	[16A-	.	.	.	(16bb-LL	.	.
4F]	.	4A-]	.	(16d-LL	.	16aa-JJ)	.	.
.	.	.	.	16f	.	(32aa-LLL	.	.
.	.	.	.	.	.	32eee-JJJ)	.	.
.	.	.	.	16a-	.	8ddd-	.	.
.	.	.	.	16dd-JJ)	.	.	.	.
=50	=50	=50	=50	=50	=50	=50	=50	=50
*^	*	*	*	*	*	*	*	*
!	!	!	!LO:TX:a:i:t=poco	!	!	!	!	!	!
!	!	!	!LO:TX:a:i:t=poco	!	!	!	!LO:TX:a:i:t=poco	!	!
(16AA-LL	4AA-	.	16r	.	8r	.	16r	.	V(64)
!	!	!	!LO:TX:b:Bi:t=p	!	!	!	!LO:TX:b:Bi:t=p	!	!
[16FJJ)	.	.	[16A-	.	.	.	(16bb-LL	.	.
!	!	!	!	!	!LO:TX:b:Bi:t=p	!	!	!	!
8FL]	.	.	4A-]	.	(16d-LL	.	16aa-JJ)	.	.
.	.	.	.	.	16f	.	(32aa-LLL	.	.
.	.	.	.	.	.	.	32ddd-JJJ)	.	.
8G-J	8AA-	.	.	.	16e-	.	8ccc	.	V7
.	.	.	.	.	16a-JJ)	.	.	.	.
*v	*v	*	*	*	*	*	*	*	*
(16FFLL	.	16r	.	8r	.	16r	.	I6
[16FJJ)	.	[16A-	.	.	.	(16bb-LL	.	.
4F]	.	4A-]	.	(16d-LL	.	16aa-JJ)	.	.
.	.	.	.	16f	.	(32aa-LLL	.	.
.	.	.	.	.	.	32eee-JJJ)	.	.
.	.	.	.	16a-	.	8ddd-	.	.
.	.	.	.	16dd-JJ)	.	.	.	.
=51	=51	=51	=51	=51	=51	=51	=51	=51
!	!	!LO:TX:b:i:t=cresc.	!	!	!	!	!	!
!LO:TX:b:i:t=cresc.	!	!LO:TX:a:i:t=cresc.	!	!	!	!LO:TX:b:i:t=cresc.	!	!
(16FFLL	.	16r	.	8r	.	16r	.	#viio7/ii
[16FJJ)	.	[16A-	.	.	.	(16bb-LL	.	.
4F]	.	4A-]	.	(16dnLL	.	16aa-JJ)	.	.
.	.	.	.	16f	.	(32aa-LLL	.	.
.	.	.	.	.	.	32eee-JJJ)	.	.
.	.	.	.	16a-	.	[8dddn	.	.
.	.	.	.	16cc-XJJ)	.	.	.	.
*^	*	*	*	*	*	*	*	*
(16GG-LL	[4GG-	.	16r	.	8r	.	(16dddLL]	.	ii6
[16G-JJ)	.	.	[16B-	.	.	.	16eee-	.	.
8G-_	.	.	4B-]	.	(16e-LL	.	16fff	.	.
.	.	.	.	.	16g-	.	16ggg-	.	.
(16G-LL]	16GG-LL]	.	.	.	16b-	.	16aaa-	.	.
16GnJJ)	16GGnJJ	.	.	.	16b-JJ)	.	16bbb-JJ)	.	#viio/V
=52	=52	=52	=52	=52	=52	=52	=52	=52	=52
!	!	!	!LO:TX:b:i:t=dim.	!	!	!	!	!	!
!	!	!	!LO:TX:a:i:t=dim.	!	!	!	!	!	!
!LO:TX:b:i:t=dim.	!	!	!LO:TX:b:Bi:t=p	!	!LO:TX:a:i:t=dim.	!	!	!	!
!LO:TX:a:Bi:t=p	!	!	!LO:TX:a:Bi:t=p	!	!LO:TX:a:Bi:t=p	!	!	!	!
!LO:TX:b:Bi:t=rfz	!	!	!LO:TX:a:Bi:t=rfz	!	!LO:TX:a:Bi:t=rfz	!	!LO:TX:a:Bi:t=rfz	!	!
(16AA-LL	4AA-	.	16r	.	8r	.	16bbb-^LL	.	V(64)
[16FJJ)	.	.	[16f	.	.	.	(16B-	.	.
8FL]	.	.	(16fLL]	.	(16a-LL	.	16A-JJ)	.	.
.	.	.	[16A-JJ)	.	16dd-	.	(32A-LLL	.	.
.	.	.	.	.	.	.	32d-JJJ)	.	.
8G-J	8AA-	.	8A-]	.	16ff	.	8c	.	V7
.	.	.	.	.	16ee-JJ)	.	.	.	.
(16DD-LL	4DD-	.	16r	.	8r	.	16r	.	I\\
[16D-JJ)	.	.	(8.f	.	.	.	(16e-LL	.	.
8D-]	.	.	.	.	(16a-KL	.	16d-JJ)	.	.
.	.	.	.	.	8.dd-J)	.	(32d-LLL	.	.
.	.	.	.	.	.	.	32e-JJJ)	.	.
(16GG-LL	8rEE	.	16b-LL	.	.	.	8d-	.	ii7
16EE-JJ)	.	.	16g-JJ)	.	.	.	.	.	.
=53	=53	=53	=53	=53	=53	=53	=53	=53	=53
(16DD-LL	4DD-	.	16r	.	8r	.	16r	.	I
[16D-JJ)	.	.	(8.FL	.	.	.	(16ee-LL	.	.
8D-]	.	.	.	.	(16A-KL	.	16dd-JJ)	.	.
.	.	.	.	.	8.d-J)	.	(32dd-LLL	.	.
.	.	.	.	.	.	.	32ee-JJJ)	.	.
*v	*v	*	*	*	*	*	*	*	*
(16GG-LL	.	16B-L	.	.	.	8dd-	.	ii7
16EE-JJ)	.	16G-JJ)	.	.	.	.	.	.
*^	*	*	*	*	*	*	*	*
(16DD-LL	4DD-	.	16r	.	8r	.	16r	.	.
[16D-JJ)	.	.	(8.FL	.	.	.	(16eee-LL	.	I
8D-]	.	.	.	.	(16A-KL	.	16ddd-JJ)	.	.
.	.	.	.	.	8.d-J)	.	(32ddd-LLL	.	.
.	.	.	.	.	.	.	32eee-JJJ)	.	.
*v	*v	*	*	*	*	*	*	*	*
(16GG-LL	.	16B-L	.	.	.	[8ddd-	.	ii7
16EE-JJ)	.	16G-JJ)	.	.	.	.	.	.
=54	=54	=54	=54	=54	=54	=54	=54	=54
*^	*	*	*	*	*	*	*	*
!LO:TX:a:i:t=ritardando	!	!	!LO:TX:a:i:t=ritardando	!	!	!	!LO:TX:b:i:t=ritardando	!	!
!LO:TX:a:Bi:t=pp	!	!	!LO:TX:a:Bi:t=pp	!	!	!	!LO:TX:a:Bi:t=pp	!	!
(16DD-LL	4DD-	.	16r	.	8r	.	8.ddd-L]	.	I
[16D-JJ)	.	.	[8.F	.	.	.	.	.	.
4D-_	.	.	.	.	(16A-LL	.	.	.	.
.	.	.	.	.	16d-	.	(32ddd-LL	.	.
.	.	.	.	.	.	.	32eee-JJJ)	.	.
*v	*v	*	*	*	*	*	*	*	*
.	.	.	.	16a-JJ)	.	(32aa-L	.	.
.	.	.	.	.	.	32bb-JJJ)	.	.
*^	*	*	*	*	*	*	*	*
4.D-;]	4.DD-	.	4.F;]	.	4.f; 4.dd-	.	16aa-LL	.	.
.	.	.	.	.	.	.	(32ffL	.	.
.	.	.	.	.	.	.	32gg-JJJ)	.	.
.	.	.	.	.	.	.	4ff;	.	I\\
*v	*v	*	*	*	*	*	*	*	*
==	==	==	==	==	==	==	==	==
*-	*-	*-	*-	*-	*-	*-	*-	*-
!!!system-decoration: [(s1,s2,s3,s4)]
